icons/glyphs/glyph-flag.svg

<?xml version="1.0" encoding="UTF-8" standalone="no"?><svg height="16" viewBox="0 0 4.2333332 4.2333332" width="16" xmlns="http://www.w3.org/2000/svg"><sodipodi:namedview><inkscape:grid/></sodipodi:namedview><metadata><rdf:RDF><cc:Work><dc:format>image/svg+xml</dc:format><dc:type/><dc:title/></cc:Work></rdf:RDF></metadata><path d="m0 3.4375v8.667969l13.308594-4.3339846zm12.8125 4.9101562-6.9960938 2.2792968 3.3652344 1.935547.1347656-.148438 2.8789058-3.3085932-.027343-.0097657zm-.207031.890625-2.683594 3.0839848 6.078125-1.978516z" fill="#d0d0d0" stroke-linecap="square" stroke-width="1.2" transform="scale(.26458333)"/></svg>

<?xml version="1.0" encoding="UTF-8" standalone="no"?>
<!-- Created with Inkscape (http://www.inkscape.org/) -->

<svg
   xmlns:dc="http://purl.org/dc/elements/1.1/"
   xmlns:cc="http://creativecommons.org/ns#"
   xmlns:rdf="http://www.w3.org/1999/02/22-rdf-syntax-ns#"
   xmlns:svg="http://www.w3.org/2000/svg"
   xmlns="http://www.w3.org/2000/svg"
   xmlns:sodipodi="http://sodipodi.sourceforge.net/DTD/sodipodi-0.dtd"
   xmlns:inkscape="http://www.inkscape.org/namespaces/inkscape"
   width="16"
   height="16"
   viewBox="0 0 4.2333332 4.2333332"
   version="1.1"
   id="svg8"
   inkscape:version="0.92+devel (d0390b9f4f, 2017-07-31, custom)"
   sodipodi:docname="glyph-flag.svg">
  <defs
     id="defs2" />
  <sodipodi:namedview
     id="base"
     pagecolor="#002466"
     bordercolor="#ffffff"
     borderopacity="0.38039216"
     inkscape:pageopacity="1"
     inkscape:pageshadow="2"
     inkscape:zoom="25.75"
     inkscape:cx="18.007092"
     inkscape:cy="7.8049971"
     inkscape:document-units="px"
     inkscape:current-layer="svg8"
     inkscape:document-rotation="0"
     showgrid="false"
     inkscape:showpageshadow="false"
     borderlayer="true"
     inkscape:window-width="1920"
     inkscape:window-height="1051"
     inkscape:window-x="0"
     inkscape:window-y="0"
     inkscape:window-maximized="1"
     units="px"
     inkscape:object-paths="true"
     inkscape:snap-intersection-paths="true"
     inkscape:snap-center="true">
    <inkscape:grid
       type="xygrid"
       id="grid826" />
  </sodipodi:namedview>
  <metadata
     id="metadata5">
    <rdf:RDF>
      <cc:Work
         rdf:about="">
        <dc:format>image/svg+xml</dc:format>
        <dc:type
           rdf:resource="http://purl.org/dc/dcmitype/StillImage" />
        <dc:title></dc:title>
      </cc:Work>
    </rdf:RDF>
  </metadata>
  <path
     style="font-variation-settings:normal;vector-effect:none;fill:#d0d0d0;stroke-width:1.20000005;stroke-linecap:square"
     d="M 0 3.4375 L 0 12.105469 L 13.308594 7.7714844 L 0 3.4375 z M 12.8125 8.3476562 L 5.8164062 10.626953 L 9.1816406 12.5625 L 9.3164062 12.414062 L 12.195312 9.1054688 L 12.167969 9.0957031 L 12.8125 8.3476562 z M 12.605469 9.2382812 L 9.921875 12.322266 L 16 10.34375 L 12.605469 9.2382812 z "
     transform="scale(0.26458333)"
     id="path818"
     inkscape:label="#" />
</svg>
